X: 1336
T: The Bottle of Porter
R:Reel
N:Collected by Mrs.Cantwell
B:O'Neill's 1336
Z:Transcribed by Trish O'Neil
M:C|
L:1/8
K:G
B|d2(3efg BGdB|Aaag fefd|gfgd ecdB|cedc BG G:|
c|BGDG EGDB|cBAB cedc|BGDG EGDB|cedc BGGc|
BGDG EGDB|cBAB cedc|Bggf eaag|fdcA BG G|]


